dist/img/location.svg

<svg width="19" height="25" viewBox="0 0 19 25" fill="none" xmlns="http://www.w3.org/2000/svg">
<path d="M9.48264 0C4.43046 0 0.320312 4.11015 0.320312 9.16233C0.320312 11.4832 1.78268 14.7623 4.66697 18.9087C6.77516 21.9397 8.84864 24.2851 8.936 24.3835L9.48264 25L10.0295 24.3835C10.1166 24.2851 12.1901 21.9397 14.2985 18.9087C17.1826 14.7623 18.6452 11.4832 18.6452 9.16233C18.6452 4.11015 14.5348 0 9.48264 0ZM13.1066 18.0622C11.6816 20.1122 10.2414 21.8765 9.48264 22.7766C8.72581 21.879 7.29091 20.1214 5.86688 18.074C3.1945 14.2323 1.78191 11.1506 1.78191 9.16233C1.78191 4.91619 5.2365 1.4616 9.48264 1.4616C13.729 1.4616 17.1834 4.91619 17.1834 9.16233C17.1834 11.1485 15.7737 14.226 13.1066 18.0622Z" fill="#C8A35F"/>
<path d="M9.48264 3.38623C6.50089 3.38623 4.07512 5.812 4.07512 8.79375C4.07512 11.7755 6.50089 14.2015 9.48264 14.2015C12.4646 14.2015 14.8904 11.7755 14.8904 8.79375C14.8904 5.812 12.4646 3.38623 9.48264 3.38623ZM9.48264 12.7399C7.30693 12.7399 5.53672 10.9697 5.53672 8.79375C5.53672 6.61804 7.30693 4.84783 9.48264 4.84783C11.6585 4.84783 13.4288 6.61804 13.4288 8.79375C13.4288 10.9697 11.6585 12.7399 9.48264 12.7399Z" fill="#C8A35F"/>
</svg>

<svg width="19" height="25" fill="none" xmlns="http://www.w3.org/2000/svg"><path d="M9.483 0C4.43 0 .32 4.11.32 9.162c0 2.321 1.463 5.6 4.347 9.747a65.37 65.37 0 0 0 4.269 5.475l.547.616.546-.616a65.488 65.488 0 0 0 4.27-5.475c2.884-4.147 4.346-7.426 4.346-9.747C18.645 4.11 14.535 0 9.483 0Zm3.624 18.062a66.438 66.438 0 0 1-3.624 4.715 66.365 66.365 0 0 1-3.616-4.703c-2.672-3.842-4.085-6.923-4.085-8.912 0-4.246 3.455-7.7 7.7-7.7 4.247 0 7.701 3.454 7.701 7.7 0 1.986-1.41 5.064-4.076 8.9Z" fill="#C8A35F"/><path d="M9.483 3.386a5.414 5.414 0 0 0-5.408 5.408A5.414 5.414 0 0 0 9.483 14.2a5.414 5.414 0 0 0 5.407-5.407 5.414 5.414 0 0 0-5.407-5.408Zm0 9.354a3.95 3.95 0 0 1-3.946-3.946 3.95 3.95 0 0 1 3.946-3.946 3.95 3.95 0 0 1 3.946 3.946 3.95 3.95 0 0 1-3.946 3.946Z" fill="#C8A35F"/></svg>
